X: 021580
T: Billy McCormick's
T: Port Liam Mhic Cormaic
S: B.Breathnach:"Ceol Rince na hEireann" III/7
Z: B.Black
L: 1/8
M: 6/8
R: jig
K: Ador
ABA ABg|edB gdB|G3 BAG|dBG AGE|
ABA ABg|edB def|gfe fdB|BAG A3 :|
a3 age|aba age|g3 gdB|GAB def|
a3 age|edB def|gfe fdB|BAG A3 :|
